svgs/regular/peso-sign.svg

<svg xmlns="http://www.w3.org/2000/svg" viewBox="0 0 384 512"><!--! Font Awesome Pro 6.6.0 by @fontawesome - https://fontawesome.com License - https://fontawesome.com/license (Commercial License) Copyright 2024 Fonticons, Inc. --><path d="M93.6 32C68.4 32 48 52.4 48 77.6L48 128l-24 0c-13.3 0-24 10.7-24 24s10.7 24 24 24l24 0 0 48-24 0c-13.3 0-24 10.7-24 24s10.7 24 24 24l24 0 0 72 0 112c0 13.3 10.7 24 24 24s24-10.7 24-24l0-88 88 0c67 0 124.9-39.2 151.8-96l24.2 0c13.3 0 24-10.7 24-24s-10.7-24-24-24l-9.7 0c1.1-7.8 1.7-15.9 1.7-24s-.6-16.2-1.7-24l9.7 0c13.3 0 24-10.7 24-24s-10.7-24-24-24l-24.2 0C308.9 71.2 251 32 184 32L93.6 32zM280 128L96 128l0-48 88 0c39.3 0 74.1 18.9 96 48zM96 176l205.6 0c1.6 7.8 2.4 15.8 2.4 24s-.8 16.2-2.4 24L96 224l0-48zm184 96c-21.9 29.1-56.7 48-96 48l-88 0 0-48 184 0z"/></svg>

<svg xmlns="http://www.w3.org/2000/svg" viewBox="0 0 384 512"><!--! Font Awesome Pro 6.4.2 by @fontawesome - https://fontawesome.com License - https://fontawesome.com/license (Commercial License) Copyright 2023 Fonticons, Inc. --><path d="M93.6 32C68.4 32 48 52.4 48 77.6V128H24c-13.3 0-24 10.7-24 24s10.7 24 24 24H48v48H24c-13.3 0-24 10.7-24 24s10.7 24 24 24H48v72V456c0 13.3 10.7 24 24 24s24-10.7 24-24V368h88c67 0 124.9-39.2 151.8-96H360c13.3 0 24-10.7 24-24s-10.7-24-24-24h-9.7c1.1-7.8 1.7-15.9 1.7-24s-.6-16.2-1.7-24H360c13.3 0 24-10.7 24-24s-10.7-24-24-24H335.8C308.9 71.2 251 32 184 32H93.6zM280 128H96V80h88c39.3 0 74.1 18.9 96 48zM96 176H301.6c1.6 7.8 2.4 15.8 2.4 24s-.8 16.2-2.4 24H96V176zm184 96c-21.9 29.1-56.7 48-96 48H96V272H280z"/></svg>
